dist/assets/img/footer-logo-1.svg

<svg width="84" height="60" viewBox="0 0 84 60" fill="none" xmlns="http://www.w3.org/2000/svg">
<path d="M84 0H0V60H84V0Z" fill="#333A4A"/>
<path d="M20.9002 39.1006C22.3002 39.1006 25.9002 38.8006 28.5002 36.9006V38.4006H33.8002V31.9006L36.0002 29.6006L40.9002 38.4006H47.3002L39.9002 25.9006L47.1002 18.0006H40.5002L33.8002 25.7006V10.8006H28.5002V13.2006C26.9002 11.5006 24.2002 10.1006 20.1002 10.1006C11.2002 10.1006 9.5002 15.5006 9.5002 18.6006C9.5002 22.8006 11.7002 25.1006 15.6002 26.0006L21.1002 27.4006C24.0002 28.1006 26.1002 28.7006 26.1002 30.8006C26.1002 33.7006 23.1002 34.4006 20.3002 34.4006C15.3002 34.4006 14.5002 31.5006 14.5002 29.9006H9.2002C9.2002 33.3006 10.9002 39.1006 20.9002 39.1006ZM24.6002 22.7006L17.9002 21.0006C16.8002 20.7006 15.0002 20.3006 15.0002 18.1006C15.0002 15.6006 17.6002 14.8006 19.8002 14.8006C24.8002 14.8006 25.3002 17.7006 25.4002 19.0006H28.6002V24.1006C27.4002 23.5006 26.0002 23.0006 24.6002 22.7006Z" fill="#262B37"/>
<path d="M13.7998 51.0994C13.2998 51.0994 12.7998 51.0994 12.4998 50.9994V49.3994C12.6998 49.4994 12.8998 49.5994 13.1998 49.5994C13.5998 49.5994 13.8998 49.3994 14.0998 49.0994V48.9994L10.2998 41.8994H12.5998L15.0998 46.9994L16.9998 41.8994H19.1998L15.8998 49.5994C15.6998 49.9994 15.4998 50.2994 15.2998 50.4994C15.0998 50.7994 14.7998 50.8994 14.4998 51.0994C14.1998 51.0994 13.8998 51.0994 13.7998 51.0994Z" fill="#262B37"/>
<path d="M24.9002 51H23.1002V48.2C22.9002 48.3 22.6002 48.4 22.2002 48.6C21.8002 48.8 21.4002 48.8 21.0002 48.8C20.3002 48.8 19.7002 48.6 19.3002 48.2C18.9002 47.8 18.7002 47.2 18.7002 46.4V44.1H20.5002V46.3C20.5002 46.9 20.9002 47.2 21.7002 47.2C21.9002 47.2 22.2002 47.1 22.5002 47C22.8002 46.9 23.0002 46.8 23.1002 46.7V44H24.9002V51Z" fill="#262B37"/>
<path d="M32.4004 49.6998C32.4004 50.0998 32.4004 50.2998 32.5004 50.4998C32.6004 50.5998 32.7004 50.6998 32.8004 50.7998V50.9998H30.9004C30.8004 50.6998 30.8004 50.4998 30.7004 50.1998C30.4004 50.4998 30.1004 50.6998 29.8004 50.8998C29.5004 51.0998 29.0004 51.1998 28.5004 51.1998C28.1004 51.1998 27.8004 51.0998 27.5004 50.9998C27.2004 50.8998 26.9004 50.5998 26.7004 50.2998C26.5004 49.9998 26.4004 49.5998 26.4004 49.1998C26.4004 48.7998 26.5004 48.3998 26.7004 48.0998C26.9004 47.7998 27.1004 47.5998 27.4004 47.3998C27.7004 47.1998 28.0004 47.0998 28.4004 47.0998L30.0004 46.8998C30.4004 46.7998 30.6004 46.6998 30.6004 46.3998C30.6004 46.0998 30.5004 45.8998 30.3004 45.7998C30.1004 45.6998 29.8004 45.6998 29.5004 45.6998C29.1004 45.6998 28.8004 45.7998 28.7004 45.9998C28.5004 46.1998 28.5004 46.3998 28.4004 46.6998H26.7004C26.8004 45.9998 26.9004 45.4998 27.2004 45.1998C27.5004 44.8998 27.8004 44.5998 28.3004 44.4998C28.7004 44.3998 29.2004 44.2998 29.7004 44.2998C30.1004 44.2998 30.5004 44.3998 30.9004 44.4998C31.3004 44.5998 31.7004 44.7998 32.0004 45.0998C32.3004 45.3998 32.4004 45.7998 32.4004 46.2998V49.6998ZM30.7004 47.6998C30.5004 47.8998 30.1004 47.9998 29.5004 48.0998C29.2004 48.0998 29.0004 48.1998 28.9004 48.2998C28.7004 48.3998 28.6004 48.4998 28.5004 48.5998C28.4004 48.6998 28.3004 48.8998 28.3004 49.1998C28.3004 49.4998 28.4004 49.6998 28.6004 49.7998C28.8004 49.8998 29.0004 49.9998 29.2004 49.9998C29.5004 49.9998 29.7004 49.8998 30.0004 49.7998C30.2004 49.6998 30.4004 49.4998 30.6004 49.2998C30.8004 49.0998 30.8004 48.8998 30.8004 48.5998V47.6998H30.7004Z" fill="#262B37"/>
<path d="M39.8 48.5C39.8 48.7 39.7 49 39.6 49.3C39.5 49.6 39.3 49.9 39.1 50.2C38.9 50.5 38.6 50.7 38.1 50.9C37.7 51.1 37.2 51.2 36.6 51.2C36 51.2 35.5 51.1 35.1 50.9C34.7 50.7 34.4 50.4 34.1 50.1C33.9 49.8 33.7 49.4 33.6 49C33.5 48.6 33.5 48.2 33.5 47.8C33.5 47 33.6 46.4 33.8 45.8C34 45.2 34.4 44.8 34.9 44.5C35.4 44.2 36 44 36.8 44C37.2 44 37.7 44.1 38.1 44.2C38.5 44.4 38.9 44.6 39.2 45C39.5 45.4 39.7 45.9 39.8 46.6H38C37.9 45.9 37.5 45.5 36.8 45.5C36.5 45.5 36.2 45.6 36 45.8C35.8 46 35.6 46.2 35.5 46.5C35.4 46.8 35.4 47.1 35.4 47.4C35.4 47.8 35.4 48.1 35.5 48.4C35.6 48.7 35.7 49 35.9 49.2C36.1 49.4 36.4 49.6 36.8 49.6C37.1 49.6 37.3 49.5 37.5 49.4C37.7 49.3 37.8 49.1 37.9 48.9C38 48.7 38 48.6 38 48.4H39.8V48.5Z" fill="#262B37"/>
<path d="M42.5 51.0002V45.6002H40.5V44.2002H46.4V45.6002H44.4V51.0002H42.5Z" fill="#262B37"/>
<path d="M53.5004 51.0002H51.7004V48.3002H49.2004V51.0002H47.4004V44.2002H49.2004V46.9002H51.7004V44.2002H53.5004V51.0002Z" fill="#262B37"/>
<path d="M61.1996 51.0002H59.3996V46.9002L56.9996 51.0002H55.0996V44.2002H56.8996V48.3002L59.2996 44.2002H61.1996V51.0002Z" fill="#262B37"/>
<path d="M64.5998 51.0002H62.7998V44.2002H64.5998V46.8002L66.8998 44.2002H69.0998L66.6998 46.8002L69.1998 51.0002H66.9998L65.2998 48.1002L64.5998 48.9002V51.0002Z" fill="#262B37"/>
</svg>

<svg width="84" height="60" viewBox="0 0 84 60" fill="none" xmlns="http://www.w3.org/2000/svg"><path d="M84 0H0v60h84V0z" fill="#333A4A"/><path d="M20.9 39.1c1.4 0 5-.3 7.6-2.2v1.5h5.3v-6.5l2.2-2.3 4.9 8.8h6.4l-7.4-12.5 7.2-7.9h-6.6l-6.7 7.7V10.8h-5.3v2.4c-1.6-1.7-4.3-3.1-8.4-3.1-8.9 0-10.6 5.4-10.6 8.5 0 4.2 2.2 6.5 6.1 7.4l5.5 1.4c2.9.7 5 1.3 5 3.4 0 2.9-3 3.6-5.8 3.6-5 0-5.8-2.9-5.8-4.5H9.2c0 3.4 1.7 9.2 11.7 9.2zm3.7-16.4L17.9 21c-1.1-.3-2.9-.7-2.9-2.9 0-2.5 2.6-3.3 4.8-3.3 5 0 5.5 2.9 5.6 4.2h3.2v5.1c-1.2-.6-2.6-1.1-4-1.4zM13.8 51.1c-.5 0-1 0-1.3-.1v-1.6c.2.1.4.2.7.2.4 0 .7-.2.9-.5V49l-3.8-7.1h2.3l2.5 5.1 1.9-5.1h2.2l-3.3 7.7c-.2.4-.4.7-.6.9-.2.3-.5.4-.8.6h-.7zm11.1-.1h-1.8v-2.8c-.2.1-.5.2-.9.4s-.8.2-1.2.2c-.7 0-1.3-.2-1.7-.6-.4-.4-.6-1-.6-1.8v-2.3h1.8v2.2c0 .6.4.9 1.2.9.2 0 .5-.1.8-.2.3-.1.5-.2.6-.3V44h1.8v7zm7.5-1.3c0 .4 0 .6.1.8l.3.3v.2h-1.9c-.1-.3-.1-.5-.2-.8-.3.3-.6.5-.9.7-.3.2-.8.3-1.3.3-.4 0-.7-.1-1-.2-.3-.1-.6-.4-.8-.7-.2-.3-.3-.7-.3-1.1 0-.4.1-.8.3-1.1.2-.3.4-.5.7-.7.3-.2.6-.3 1-.3l1.6-.2c.4-.1.6-.2.6-.5s-.1-.5-.3-.6c-.2-.1-.5-.1-.8-.1-.4 0-.7.1-.8.3-.2.2-.2.4-.3.7h-1.7c.1-.7.2-1.2.5-1.5.3-.3.6-.6 1.1-.7.4-.1.9-.2 1.4-.2.4 0 .8.1 1.2.2.4.1.8.3 1.1.6.3.3.4.7.4 1.2v3.4zm-1.7-2c-.2.2-.6.3-1.2.4-.3 0-.5.1-.6.2-.2.1-.3.2-.4.3-.1.1-.2.3-.2.6s.1.5.3.6c.2.1.4.2.6.2.3 0 .5-.1.8-.2.2-.1.4-.3.6-.5.2-.2.2-.4.2-.7v-.9h-.1zm9.1.8c0 .2-.1.5-.2.8-.1.3-.3.6-.5.9-.2.3-.5.5-1 .7-.4.2-.9.3-1.5.3s-1.1-.1-1.5-.3c-.4-.2-.7-.5-1-.8-.2-.3-.4-.7-.5-1.1-.1-.4-.1-.8-.1-1.2 0-.8.1-1.4.3-2 .2-.6.6-1 1.1-1.3.5-.3 1.1-.5 1.9-.5.4 0 .9.1 1.3.2.4.2.8.4 1.1.8.3.4.5.9.6 1.6H38c-.1-.7-.5-1.1-1.2-1.1-.3 0-.6.1-.8.3-.2.2-.4.4-.5.7-.1.3-.1.6-.1.9 0 .4 0 .7.1 1 .1.3.2.6.4.8.2.2.5.4.9.4.3 0 .5-.1.7-.2.2-.1.3-.3.4-.5.1-.2.1-.3.1-.5h1.8v.1zm2.7 2.5v-5.4h-2v-1.4h5.9v1.4h-2V51h-1.9zm11 0h-1.8v-2.7h-2.5V51h-1.8v-6.8h1.8v2.7h2.5v-2.7h1.8V51zm7.7 0h-1.8v-4.1L57 51h-1.9v-6.8h1.8v4.1l2.4-4.1h1.9V51zm3.4 0h-1.8v-6.8h1.8v2.6l2.3-2.6h2.2l-2.4 2.6 2.5 4.2H67l-1.7-2.9-.7.8V51z" fill="#262B37"/></svg>
